X:1
T:Иду дани
T:Иду дани
T:за клавир
T:Жељко Јоксимовић
T:аранжман НН
T:2020.
T:2020.
C:Жељко Јоксимовић
Z:аранжман НН
Z:2020.
%%score { ( 1 4 ) | ( 2 3 ) }
L:1/8
Q:1/4=80
M:4/4
K:F
V:1 treble nm="Piano" snm="Pno."
V:4 treble 
V:2 bass 
V:3 bass 
V:1
!mf! !arpeggio![DFA]4!f! dd!ff! (3ddd{^c} | (3dAA (3AAA!p! (3AAA!pp! (3AAA!mp! | A A3- A2 GA | %3
{/A} B4 A4 | z2 GF E2 D2 | z2 CC D2 B,2 | !fermata!A,8 |!mp! B,2 z2 z2 DD | ^C2 D2 E2 (3FED | %9
!mf! !arpeggio![DFA]4!f! dd!ff! (3ddd{^c} |!mf! d^G-!p!GA!pp! FE D2 |!p! A A3- A2 GA |{/A} B4 A4 | %13
 z2 GF E2 D2 | z2 CC D2 B,2 | A,8 |!mp! B,2 z2 z2 DD | ^C2 (DE) E2 (3FED | !arpeggio![DFA]8 | %19
 DA,FD AF A(7:4:7D/4E/4^F/4G/4A/4=B/4^c/4 |[K:D] d4 [Ge]2 [Fd]2 | [Ec]2 [CA]2 [GB]4 | %22
 [EG][FA][GB][FA] [DFA]4 | [DFA]4 d4 | [Ge]2 [Fd]2 [Ec]2 [CA][DB] | [GB]4 [EG][FA][GB][FA] | A8 | %27
[K:F]!mp! A4 G2 F2 | E2 D2 ^CDAG | G4 FEDE | E8 | E4 (FE)(ED) :| d2 A2 FD PA2 | G4- G!mf!D PA2 | %34
 G3 A!f! Bcdc | B{/c}B A4- A!p!D | d2 A2 FD PA2 | G4- GD PA2 |!mp! G3 E FEDE | E8 | %40
!mf! E4 (FE)(ED) |!mp! DA,DF!p! AFA^c |!pp! !arpeggio![DFAd]8 |] %43
V:2
 !arpeggio![D,F,A,]8 | A,2 G,2 F,2 E,2 |!p! D,8 | D,4 D,4 | !arpeggio![G,,B,,D,]6 [G,,B,,D,]2 | %5
 !arpeggio![C,E,G,]6 [B,,C,E,G,]2 | z2 !tenuto!F,,2 !tenuto!F,,2 !tenuto!F,,2 | G,,8 | A,,8 | D,8 | %10
 D,8 | D,8 | D,4 D,4 | !arpeggio![G,,B,,D,]6 [G,,B,,D,]2 | !arpeggio![C,E,G,]6 [B,,C,E,G,]2 | %15
 z2 !tenuto!F,,2 !tenuto!F,,2 !tenuto!F,,2 | G,,8 | A,,8 | %18
!mf! !arpeggio![D,F,A,]4!f! DD!ff! (3DDD{^C} | D,2 D,2 D,2 D,2 |[K:D] [B,,D,F,]8 | %21
 [A,,C,E,]4 [G,,B,,D,]4- | [G,,B,,D,]4 D,A,,F,D, | %23
 A,F, A,(7:4:7D,/4E,/4F,/4G,/4A,/4B,/4C/4 [B,,D,F,]4- | [B,,D,F,]4 [A,,C,E,]4 | [G,,B,,D,]8 | %26
 [D,F,A,]8 |[K:F] !arpeggio![D,F,A,]8 | [D,F,A,]8 | !arpeggio![B,,D,G,]8 | !arpeggio![A,,^C,E,]8 | %31
 A,,,8 :|!p! D,8 | D,4 D,4 | G,,8 | [C,E,G,]2 [^C,E,]6 |!p! D,8 | D,4 D,4 | !arpeggio![B,,D,G,]8 | %39
 !arpeggio![A,,^C,E,]8 | A,,,8 | D,3 D, F,D,F,A, | !arpeggio![D,F,A,D]8 |] %43
V:3
 z2 E,2 F,2 G,2 | x8 | z2 !tenuto![F,A,]2 !tenuto![F,A,]2 !tenuto![F,A,]2 | %3
 z2 !tenuto![G,B,]2 z2 !tenuto![F,A,]2 | x8 | x8 | !arpeggio![F,,A,,C,]8 | %7
 z2 !tenuto![B,,D,]2 !tenuto![B,,D,]2 !tenuto![B,,D,]2 | %8
 z2 !tenuto![^C,E,]2 !tenuto![C,E,]2 !tenuto![C,E,G,]2 | %9
 z2 !tenuto![F,A,]2 !tenuto![F,A,]2 !tenuto![F,A,]2 | %10
 z2 !tenuto![F,A,]2 !tenuto![F,A,]2 !tenuto![F,A,]2 | %11
 z2 !tenuto![F,A,]2 !tenuto![F,A,]2 !tenuto![F,A,]2 | z2 !tenuto![G,B,]2 z2 !tenuto![F,A,]2 | x8 | %14
 x8 | !arpeggio![F,,A,,C,]8 | z2 !tenuto![B,,D,]2 !tenuto![B,,D,]2 !tenuto![B,,D,]2 | %17
 z2 !tenuto![^C,E,]2 !tenuto![C,E,]2 !tenuto![C,E,G,]2 | x8 | x8 |[K:D] x8 | x8 | x8 | x8 | x8 | %25
 x8 | D,A,,F,D,!f! (3A,A,!mf!A, (3A,!mp!A,A, |[K:F] x8 | x8 | x8 | x8 | z2 [A,,^C,E,]6 :| %32
 z2 !tenuto![F,A,]2 !tenuto![F,A,]2 !tenuto![F,A,]2 | z2 !tenuto![G,B,]2 z2 !tenuto![G,B,]2 | %34
 z2 !tenuto![B,,D,]2 !tenuto![B,,D,]2 !tenuto![B,,D,]2 | z2 A,4 G,2 | %36
 z2 !tenuto![F,A,]2 !tenuto![F,A,]2 !tenuto![F,A,]2 | z2 !tenuto![G,B,]2 z2 !tenuto![G,B,]2 | x8 | %39
 x8 | z2 [A,,^C,E,]6 | [D,,D,]8 | x8 |] %43
V:4
 x8 | x8 | x8 | x8 | x8 | x8 | x8 | x8 | x8 | x8 | x8 | x8 | x8 | x8 | x8 | x8 | x8 | x8 | %18
 z2 E2 F2 G2 | x8 |[K:D] x8 | x8 | x8 | x8 | x8 | x8 | x8 |[K:F] x8 | x8 | x8 | %30
 z2 z2 z z/ E/ F/E/D/E/ | z2 z2 D2 ^C2 :| D8 | x8 | x8 | x8 | z8 | x8 | x8 | %39
 z2 z2 z z/ E/ F/E/D/E/ | z2 z2 D2 ^C2 | x8 | x8 |] %43

